X: 23653
T: Limerick Tinker, The
R: jig
M: 6/8
K: Aminor
A2 B cBA|BAG AGE|A2 B cee|dBA G2 E|
A2 B cBA|BAG Ae^f|gba g^fe|dBG GAB||
e3 edB|e2 A AB/c/d|e3 edB|dBG GB/c/d|
e3 edB|e2 A Ae^f|gba g^fe|dBG GAB||
c2A Bcd|ecA A2 B|c2A Ace|dBG GAB|
c2A BAG|AGE GAB|gba g^fe|dBG GAB||

